src/assets/duotone/MessageText1.svg

<?xml version="1.0" encoding="UTF-8"?>
<svg width="24" height="24" viewBox="0 0 24 24" xmlns="http://www.w3.org/2000/svg">
 <path d="m2 12.97v-5.98c0-2.76 2.24-4.99 5-4.99h10c2.76 0 5 2.23 5 4.99v6.98c0 2.75-2.24 4.98-5 4.98h-1.5c-0.31 0-0.61 0.15-0.8 0.4l-1.5 1.99c-0.66 0.88-1.74 0.88-2.4 0l-1.5-1.99c-0.16-0.22-0.52-0.4-0.8-0.4h-1.5c-2.76 0-5-2.23-5-4.98v-1z" opacity=".4"/>
 <path d="m17 8.75h-10c-0.41 0-0.75-0.34-0.75-0.75s0.34-0.75 0.75-0.75h10c0.41 0 0.75 0.34 0.75 0.75s-0.34 0.75-0.75 0.75z"/>
 <path d="m13 13.75h-6c-0.41 0-0.75-0.34-0.75-0.75s0.34-0.75 0.75-0.75h6c0.41 0 0.75 0.34 0.75 0.75s-0.34 0.75-0.75 0.75z"/>
</svg>

<svg width="24" height="24" viewBox="0 0 24 24"  xmlns="http://www.w3.org/2000/svg">
<path opacity="0.4" d="M2 12.97V6.99C2 4.23 4.24 2 7 2H17C19.76 2 22 4.23 22 6.99V13.97C22 16.72 19.76 18.95 17 18.95H15.5C15.19 18.95 14.89 19.1 14.7 19.35L13.2 21.34C12.54 22.22 11.46 22.22 10.8 21.34L9.3 19.35C9.14 19.13 8.78 18.95 8.5 18.95H7C4.24 18.95 2 16.72 2 13.97V12.97Z" />
<path d="M17 8.75H7C6.59 8.75 6.25 8.41 6.25 8C6.25 7.59 6.59 7.25 7 7.25H17C17.41 7.25 17.75 7.59 17.75 8C17.75 8.41 17.41 8.75 17 8.75Z" />
<path d="M13 13.75H7C6.59 13.75 6.25 13.41 6.25 13C6.25 12.59 6.59 12.25 7 12.25H13C13.41 12.25 13.75 12.59 13.75 13C13.75 13.41 13.41 13.75 13 13.75Z" />
</svg>
